flaticon/technology/television.svg

<svg xmlns="http://www.w3.org/2000/svg" width="32" height="32" viewBox="0 0 24 24">
    <path d="M2.800781 7.699219C2.902344 7.699219 3.003906 7.660156 3.082031 7.582031L4.683594 5.984375C4.839844 5.828125 4.839844 5.574219 4.683594 5.417969 4.527344 5.261719 4.273438 5.261719 4.117188 5.417969L2.515625 7.015625C2.359375 7.171875 2.359375 7.425781 2.515625 7.582031 2.59375 7.660156 2.699219 7.699219 2.800781 7.699219zM2.800781 9.699219C2.902344 9.699219 3.003906 9.660156 3.082031 9.582031L3.882812 8.78125C4.039062 8.625 4.039062 8.375 3.882812 8.21875 3.726562 8.0625 3.472656 8.0625 3.316406 8.21875L2.515625 9.015625C2.359375 9.171875 2.359375 9.425781 2.515625 9.582031 2.59375 9.660156 2.699219 9.699219 2.800781 9.699219zM4.117188 7.414062C4.042969 7.492188 4 7.59375 4 7.699219 4 7.808594 4.042969 7.90625 4.117188 7.984375 4.191406 8.054688 4.292969 8.101562 4.398438 8.101562 4.507812 8.101562 4.609375 8.054688 4.683594 7.984375 4.757812 7.90625 4.800781 7.804688 4.800781 7.699219 4.800781 7.597656 4.757812 7.492188 4.683594 7.414062 4.535156 7.269531 4.265625 7.269531 4.117188 7.414062zM4.917969 7.183594C4.996094 7.261719 5.097656 7.300781 5.199219 7.300781 5.300781 7.300781 5.40625 7.261719 5.484375 7.183594L6.683594 5.984375C6.839844 5.828125 6.839844 5.574219 6.683594 5.417969 6.527344 5.261719 6.273438 5.261719 6.117188 5.417969L4.917969 6.617188C4.761719 6.773438 4.761719 7.027344 4.917969 7.183594zM6.117188 7.417969L2.515625 11.015625C2.359375 11.171875 2.359375 11.425781 2.515625 11.582031 2.59375 11.660156 2.699219 11.699219 2.800781 11.699219 2.902344 11.699219 3.003906 11.660156 3.082031 11.582031L6.683594 7.984375C6.839844 7.828125 6.839844 7.574219 6.683594 7.417969 6.527344 7.261719 6.273438 7.261719 6.117188 7.417969zM6.914062 6.617188C6.84375 6.691406 6.800781 6.796875 6.800781 6.898438 6.800781 7.003906 6.84375 7.109375 6.914062 7.183594 6.992188 7.257812 7.097656 7.300781 7.199219 7.300781 7.304688 7.300781 7.40625 7.257812 7.484375 7.183594 7.554688 7.109375 7.601562 7.003906 7.601562 6.898438 7.601562 6.796875 7.554688 6.691406 7.484375 6.617188 7.332031 6.46875 7.066406 6.46875 6.914062 6.617188zM8.117188 5.417969L7.71875 5.816406C7.5625 5.972656 7.5625 6.226562 7.71875 6.382812 7.796875 6.460938 7.898438 6.5 8 6.5 8.101562 6.5 8.203125 6.460938 8.28125 6.382812L8.683594 5.984375C8.839844 5.828125 8.839844 5.574219 8.683594 5.417969 8.527344 5.261719 8.273438 5.261719 8.117188 5.417969zM8.117188 5.417969"/>
    <path d="M 22.199219 2.898438 L 1.800781 2.898438 C 0.808594 2.898438 0 3.707031 0 4.699219 L 0 16.699219 C 0 17.691406 0.808594 18.5 1.800781 18.5 L 9.601562 18.5 L 9.601562 19.300781 L 8.199219 19.300781 C 7.429688 19.300781 6.800781 19.929688 6.800781 20.699219 C 6.800781 20.921875 6.980469 21.101562 7.199219 21.101562 C 7.421875 21.101562 7.601562 20.921875 7.601562 20.699219 C 7.601562 20.371094 7.871094 20.101562 8.199219 20.101562 L 15.800781 20.101562 C 16.128906 20.101562 16.398438 20.371094 16.398438 20.699219 C 16.398438 20.921875 16.578125 21.101562 16.800781 21.101562 C 17.019531 21.101562 17.199219 20.921875 17.199219 20.699219 C 17.199219 19.929688 16.570312 19.300781 15.800781 19.300781 L 14.398438 19.300781 L 14.398438 18.5 L 22.199219 18.5 C 23.191406 18.5 24 17.691406 24 16.699219 L 24 4.699219 C 24 3.707031 23.191406 2.898438 22.199219 2.898438 Z M 13.601562 19.300781 L 10.398438 19.300781 L 10.398438 18.5 L 13.601562 18.5 Z M 23.199219 16.699219 C 23.199219 17.25 22.75 17.699219 22.199219 17.699219 L 1.800781 17.699219 C 1.25 17.699219 0.800781 17.25 0.800781 16.699219 L 0.800781 4.699219 C 0.800781 4.148438 1.25 3.699219 1.800781 3.699219 L 22.199219 3.699219 C 22.75 3.699219 23.199219 4.148438 23.199219 4.699219 C 23.199219 4.699219 23.199219 16.699219 23.199219 16.699219 Z M 23.199219 16.699219"/>
    <path d="M22 4.101562L2 4.101562C1.558594 4.101562 1.199219 4.457031 1.199219 4.898438L1.199219 15.300781C1.199219 15.742188 1.558594 16.101562 2 16.101562L22 16.101562C22.441406 16.101562 22.800781 15.742188 22.800781 15.300781L22.800781 4.898438C22.800781 4.457031 22.441406 4.101562 22 4.101562zM2 15.300781L2 4.898438 22 4.898438 22 15.300781zM12.800781 16.5L11.199219 16.5C10.980469 16.5 10.800781 16.679688 10.800781 16.898438 10.800781 17.121094 10.980469 17.300781 11.199219 17.300781L12.800781 17.300781C13.019531 17.300781 13.199219 17.121094 13.199219 16.898438 13.199219 16.679688 13.019531 16.5 12.800781 16.5zM12.800781 16.5"/>
</svg>

<svg xmlns="http://www.w3.org/2000/svg" width="32" height="32" viewBox="0 0 24 24">
    <path d="M2.8 7.7c.102 0 .204-.04.282-.118l1.602-1.598a.4.4 0 0 0-.567-.566L2.516 7.016a.4.4 0 0 0 .285.683zm0 0M2.8 9.7c.102 0 .204-.04.282-.118l.8-.8a.396.396 0 0 0 0-.563.4.4 0 0 0-.566 0l-.8.797a.4.4 0 0 0 .285.683zm0 0M4.117 7.414A.416.416 0 0 0 4 7.7c0 .11.043.207.117.285.074.07.176.118.281.118.11 0 .211-.047.286-.118A.416.416 0 0 0 4.8 7.7a.423.423 0 0 0-.117-.285.424.424 0 0 0-.567 0zm0 0M4.918 7.184c.078.078.18.117.281.117.102 0 .207-.04.285-.117l1.2-1.2a.4.4 0 0 0-.567-.566l-1.199 1.2a.4.4 0 0 0 0 .566zm0 0M6.117 7.418l-3.601 3.598a.4.4 0 0 0 .566.566l3.602-3.598a.4.4 0 0 0-.567-.566zm0 0M6.914 6.617a.42.42 0 0 0-.113.281c0 .106.043.211.113.286A.423.423 0 0 0 7.2 7.3a.416.416 0 0 0 .285-.117.426.426 0 0 0 .118-.286.424.424 0 0 0-.118-.28.42.42 0 0 0-.57 0zm0 0M8.117 5.418l-.398.398A.4.4 0 0 0 8 6.5c.102 0 .203-.04.281-.117l.403-.399a.4.4 0 0 0-.567-.566zm0 0"/>
    <path d="M22.2 2.898H1.8C.81 2.898 0 3.707 0 4.7v12c0 .992.809 1.801 1.8 1.801h7.802v.8H8.199c-.77 0-1.398.63-1.398 1.4a.401.401 0 1 0 .8 0 .6.6 0 0 1 .598-.598h7.602a.6.6 0 0 1 .597.597.401.401 0 0 0 .8 0c.001-.77-.628-1.398-1.397-1.398h-1.403V18.5H22.2c.992 0 1.801-.809 1.801-1.8v-12c0-.993-.809-1.802-1.8-1.802zm-8.598 16.403h-3.204V18.5h3.204zm9.597-2.602c0 .551-.449 1-1 1H1.801c-.551 0-1-.449-1-1v-12c0-.55.449-1 1-1h20.398c.551 0 1 .45 1 1v12zm0 0"/>
    <path d="M22 4.102H2c-.441 0-.8.355-.8.796v10.403c0 .441.359.8.8.8h20c.441 0 .8-.359.8-.8V4.898a.799.799 0 0 0-.8-.796zM2 15.3V4.898h20v10.403zm0 0M12.8 16.5h-1.6a.4.4 0 0 0 0 .8h1.6a.401.401 0 0 0 0-.8zm0 0"/>
</svg>
